X:1
T:Title
%%score { 1 | 2 }
L:1/8
M:4/4
K:Bb
V:1 treble nm="Grand Piano"
V:2 bass 
V:1
 z4 z2[Q:1/4=96] [DF]>[DF] | [DB]>[DB] [DB]>[DB] A2 F>F | G>G G>G [DF]2 [DF]>[DF] | %3
 [DB]>[DB] [DB]>[DB] [Dd]>[Dd] [=EB]>[EB] | c6 c>c |[M:3/4] [Fd]>[Fd] [Fd]>[Fd] [Fc]2 | %6
[M:1/4] [FB]>[FB] |[M:4/4] c>c B>B G2 G>G | [DF]>[DF] [FB]>c d>[Ge] d>c |[M:3/4] [DB]6 | %10
[M:1/4] [Fd]>[Fe] |[M:4/4] [Ff]2 [Fd]>[Fe] [Ff]2 [Fd]>[Ec] | B>c B>G [DF]2 [DF]>[DF] | %13
 [DB]>[DB] [DB]>[DB] [Dd]>[Dd] [=EB]>[EB] | c6 c>c |[M:3/4] [Fd]>[Fd] [Fd]>[Fd] [Fc]2 | %16
[M:1/4] [FB]>[FB] |[M:4/4] c>c B>B G2 G>G | [DF]>[DF] [FB]>c d>[Ge] d>c |[M:3/4] [DB]6 |] %20
V:2
 z4 z2 [B,,B,]>[B,,B,] | [B,,F,]>[B,,F,] [B,,F,]>[B,,F,] [C,F,C]2 [D,B,]>[D,B,] | %2
 [E,B,E]>[E,B,E] [E,B,E]>[E,B,E] [B,,B,]2 [B,,B,]>[B,,B,] | %3
 [B,,F,]>[B,,F,] [B,,F,]>[B,,F,] [G,B,]>[G,B,] [C,G,]>[C,G,] | [F,A,F]6 [F,A,F]>[F,A,F] | %5
[M:3/4] [B,,B,]>[B,,B,] [B,,B,]>[B,,B,] [C,A,]2 |[M:1/4] [D,B,]>[D,B,] | %7
[M:4/4] [E,G,E]>[E,G,E] [E,G,E]>[E,G,E] [E,B,E]2 [E,B,E]>[E,B,E] | %8
 [B,,B,]>[B,,B,] [D,B,]>[K:treble][F,A,F] [B,F]>[K:bass][E,B,] [F,B,F]>[F,E] |[M:3/4] [B,,F,]6 | %10
[M:1/4] [B,,B,]>[B,,C] |[M:4/4] [B,,D]2 [B,,B,]>[B,,C] [B,,D]2 [B,,B,]>[B,,G,] | %12
 [E,G,E]>[E,G,E] [E,G,E]>[E,B,E] [B,,B,]2 [B,,B,]>[B,,B,] | %13
 [B,,F,]>[B,,F,] [B,,F,]>[B,,F,] [G,B,]>[G,B,] [C,G,]>[C,G,] | [F,A,F]6 [F,A,F]>[F,A,F] | %15
[M:3/4] [B,,B,]>[B,,B,] [B,,B,]>[B,,B,] [C,A,]2 |[M:1/4] [D,B,]>[D,B,] | %17
[M:4/4] [E,G,E]>[E,G,E] [E,G,E]>[E,G,E] [E,B,E]2 [E,B,E]>[E,B,E] | %18
 [B,,B,]>[B,,B,] [D,B,]>[K:treble][F,A,F] [B,F]>[K:bass][E,B,] [F,B,F]>[F,E] |[M:3/4] [B,,F,]6 |] %20

